!!!OTL: DIE SONNE SCHEINT NICHT MEHR SO SCHOEN
!!!ARE: Europa, Mitteleuropa, Deutschland, Rheinpfalz, Westrich
!!!SCT: E1025
!!!YEM: Copyright 1995, estate of Helmut Schaffrath.
**kern
*ICvox
*Ivox
!! Mixed meters:  2/4; 3/4
*M2/4
*k[f#]
*G:
{8d
=1
8g
8d
8g
8a
=2
4.b}
{16b
16a
=3
8g
8a
8b
8cc
=4
4.dd}
{8dd
=5
8dd
8dd
8dd
8gg
=6
4ee
8ee}
{16dd
16cc
=7
8b
8b
8a
8a
=8
4g
8r}
{8d
=9
8g
8d
8g
8a
=10
4.b}
{16b
16a
=11
8g
8a
8b
8cc
=12
4.dd}
{8dd
=13
8dd
8dd
8dd
8gg
=14
4ee
8ee}
{16dd
16cc
=15
8b
8b
8a
8a
=16
4g
8r}
{8d
=17
*M3/4
8g
8b
4dd
8gg
8ee
=18
8dd
8b
4.g}
{8d
=19
8g
8b
4dd
8gg
8ee
=20
8dd
8b
4.g}
{8d
=21
8g
8b
4dd
4gg
=22
4.ee}
{8ee
8dd
8cc
=23
2b
4a
=24
2g
4r}
==
!!!AGN: Tanz - Lied
!!!ONB: ESAC (Essen Associative Code) Database: ERK3
!!!AMT: irregular
!!!AIN: vox
!!!EED: Helmut Schaffrath
!!!EEV: 1.0
*-
